X:1
T:Alperton, 88.87 D
T:Alperton, 88.87 D
T:Charles K. Langley, 1892
T:Public Domain Courtesy of the Cyber Hymnal™
C:Charles K. Langley, 1892
Z:Public Domain
Z:Courtesy of the Cyber Hymnal™
%%score 1 ( 2 3 )
L:1/8
Q:1/4=85
M:4/4
K:Bb
V:1 treble 
V:2 bass 
V:3 bass 
V:1
 [DB]>[Ec] | [Fd]>[Fd] [Fd][Fd] [Ge][Fd][Fc][FB] | [GB]>[GB] [GB][GB] [Gc][GB][FA][EG] | %3
 [DF][DF] [FB]>[Fd] [Ff][Fd][FB][Fd] | [Fc]>[Fd] [Fc][F=B] [Fc]2 [F_B]>[Fc] | %5
 [Fd]>[Fd] [Fd][_Af] [Ge][Fd][Fc][FB] | [GB]>[Gc] [GB][^FA] [Ac][GB][=FA][EG] | %7
 [DF][DF][FB][Fd] [Ff]!fermata![Fd] [FB]>[Gc] | [Fd][Fd] [Ec]>[Ec] !fermata![DB]2 |] %9
V:2
 [B,,B,]>[B,,B,] | [B,,B,]>[B,,B,] [B,,B,][B,,B,] [B,,B,][B,,B,][C,A,][D,B,] | %2
 [E,B,]>[E,B,] [E,B,][E,B,] [E,E][E,E][E,B,][E,B,] | %3
 [B,,B,][B,,B,] [D,B,]>[F,B,] [B,D][F,B,][D,B,][B,,B,] | %4
 [F,A,]>[F,B,] [F,A,][F,^G,] A,2 [D,B,]>[C,A,] | %5
 [B,,B,]>[B,,B,] [B,,B,][B,,B,] [B,,B,][B,,B,][B,,A,][D,B,] | %6
 [E,B,]>[E,B,] [E,B,][E,B,] [E,E][E,E][E,B,][E,B,] | %7
 [B,,B,][B,,B,][D,B,][F,B,] [B,D]!fermata![F,C] [D,B,]>[E,B,] | %8
 [F,B,][F,B,] [F,A,]>[F,A,] !fermata![B,,B,]2 |] %9
V:3
 x2 | x8 | x8 | x8 | x4 (F,E,) x2 | x8 | x8 | x8 | x6 |] %9

